**kern	**kern
*part1	*part1
*staff2	*staff1
*I"Piano	*
*clefF4	*clefG2
*k[b-e-a-d-]	*k[b-e-a-d-]
=1	=1
[4.C	8a-L 8cc
.	8g 8b-
.	8gJ 8b-
=	=
4.C]	8gL 8b-
.	8en 8g
.	8eJ 8g
=	=
4.F	8eniL 8g
.	8f 8a-
.	8cJ 8a-
=	=
4.F	8cL 8a-
.	8c 8a-
.	8cJ 8a-
=	=
[4.C	8cL 8a-
.	8B- 8g
.	8B-J 8g
=	=
4.C]	8B-L 8g
.	8G 8en
.	8GJ 8e
=	=
[4.F	4.G 4.B- 4.eni
=	=
4.F]	4A- 4c 4f
.	8r
==	==
*-	*-
!!!system-decoration: {(s1,s2)}
!!!RDF**kern: i = editorial accidental
